X:19
T:Pols e. Jørgen Veen
R:rorospols
Z:2001 Brian Wilson <baab@mediaone.net>
Z:StorBrekkingen, Track 13
Z:Pols i Rorostraktom, #144
M:3/4
L:1/8
K:A
|:   z2 a2 a>b | a2 ge f>d | B2 g2 g>f | f>e ^de f>d
| (3efg a2 a>b | a2 ge f>d | B2 g2 g>f | f>e ^de f>d | (3efg e4 :|
|: z>c e2- e>c | (3ABc d2 B>d | c>A GA B>G | A>B c/A/c B/G/B
|  A>c e2- e>c | (3ABc d2 B>d | c>A GA B>G | A/B/c A4  :|
